Newaita-dark/actions/32/debug-run-cursor.svg

<?xml version="1.0" encoding="UTF-8"?>
<svg xmlns="http://www.w3.org/2000/svg" xmlns:xlink="http://www.w3.org/1999/xlink" width="32pt" height="32pt" viewBox="0 0 32 32" version="1.1">
<g id="surface1">
<path style=" stroke:none;fill-rule:nonzero;fill:rgb(0%,58.823532%,53.333336%);fill-opacity:1;" d="M 24.105469 1.574219 C 23.578125 1.574219 23.152344 2 23.152344 2.527344 L 23.152344 2.605469 C 23.152344 3.132812 23.578125 3.558594 24.105469 3.558594 L 25.800781 3.558594 L 25.800781 28.695312 L 24.105469 28.695312 C 23.578125 28.695312 23.152344 29.121094 23.152344 29.648438 L 23.152344 29.726562 C 23.152344 30.253906 23.578125 30.679688 24.105469 30.679688 L 29.476562 30.679688 C 30.003906 30.679688 30.429688 30.253906 30.429688 29.726562 L 30.429688 29.648438 C 30.429688 29.121094 30.003906 28.695312 29.476562 28.695312 L 27.785156 28.695312 L 27.785156 3.558594 L 29.476562 3.558594 C 30.003906 3.558594 30.429688 3.132812 30.429688 2.605469 L 30.429688 2.527344 C 30.429688 2 30.003906 1.574219 29.476562 1.574219 Z M 24.105469 1.574219 "/>
<path style=" stroke:none;fill-rule:nonzero;fill:rgb(25.882354%,25.882354%,25.882354%);fill-opacity:1;" d="M 13.765625 11.21875 C 13.511719 11.210938 13.265625 11.304688 13.082031 11.480469 C 12.894531 11.65625 12.792969 11.902344 12.792969 12.15625 L 12.792969 20.09375 C 12.792969 20.433594 12.972656 20.746094 13.269531 20.910156 C 13.5625 21.078125 13.921875 21.074219 14.210938 20.898438 L 20.828125 16.929688 C 21.109375 16.761719 21.28125 16.457031 21.28125 16.125 C 21.28125 15.796875 21.109375 15.492188 20.828125 15.324219 L 14.210938 11.351562 C 14.078125 11.273438 13.925781 11.226562 13.765625 11.21875 Z M 14.667969 13.8125 L 18.523438 16.125 L 14.667969 18.441406 Z M 14.667969 13.8125 "/>
<path style=" stroke:none;fill-rule:nonzero;fill:rgb(74.117649%,74.117649%,74.117649%);fill-opacity:1;" d="M 13.765625 11.21875 C 13.511719 11.210938 13.265625 11.304688 13.082031 11.480469 C 12.894531 11.65625 12.792969 11.902344 12.792969 12.15625 L 12.792969 20.09375 C 12.792969 20.433594 12.972656 20.746094 13.269531 20.910156 C 13.5625 21.078125 13.921875 21.074219 14.210938 20.898438 L 20.828125 16.929688 C 21.109375 16.761719 21.28125 16.457031 21.28125 16.125 C 21.28125 15.796875 21.109375 15.492188 20.828125 15.324219 L 14.210938 11.351562 C 14.078125 11.273438 13.925781 11.226562 13.765625 11.21875 Z M 14.667969 13.8125 L 18.523438 16.125 L 14.667969 18.441406 Z M 14.667969 13.8125 "/>
</g>
</svg>

<svg xmlns="http://www.w3.org/2000/svg" width="32pt" height="32pt" viewBox="0 0 32 32"><path d="M24.105 1.574a.952.952 0 0 0-.953.953v.078c0 .528.426.954.953.954h1.696v25.136h-1.696a.952.952 0 0 0-.953.953v.079c0 .527.426.953.953.953h5.372a.952.952 0 0 0 .953-.953v-.079a.952.952 0 0 0-.953-.953h-1.692V3.56h1.692a.952.952 0 0 0 .953-.954v-.078a.952.952 0 0 0-.953-.953zm0 0" fill="#009688"/><path d="M13.766 11.219a.945.945 0 0 0-.684.261.925.925 0 0 0-.289.676v7.938c0 .34.18.652.477.816a.924.924 0 0 0 .94-.012l6.618-3.968a.934.934 0 0 0 .453-.805.933.933 0 0 0-.453-.8l-6.617-3.973a.971.971 0 0 0-.445-.133zm.902 2.594l3.855 2.312-3.855 2.316zm0 0" fill="#424242"/><path d="M13.766 11.219a.945.945 0 0 0-.684.261.925.925 0 0 0-.289.676v7.938c0 .34.18.652.477.816a.924.924 0 0 0 .94-.012l6.618-3.968a.934.934 0 0 0 .453-.805.933.933 0 0 0-.453-.8l-6.617-3.973a.971.971 0 0 0-.445-.133zm.902 2.594l3.855 2.312-3.855 2.316zm0 0" fill="#bdbdbd"/></svg>
